src/assets/signals/priceTypes/moving_up.svg

<svg width="16" height="16" viewBox="0 0 16 16" fill="none" xmlns="http://www.w3.org/2000/svg">
<rect width="16" height="16" rx="2" fill="#E3FBE3"/>
<path d="M5.99414 7.5202C5.55414 7.5202 5.20081 7.40353 4.93414 7.1702C4.67414 6.93686 4.53081 6.6202 4.50414 6.2202C4.49747 6.10686 4.49414 5.95686 4.49414 5.7702C4.49414 5.5702 4.49747 5.41019 4.50414 5.29019C4.53081 4.87686 4.67081 4.5502 4.92414 4.31019C5.17747 4.07019 5.53414 3.9502 5.99414 3.9502C6.45414 3.9502 6.81081 4.07019 7.06414 4.31019C7.32414 4.5502 7.46747 4.87686 7.49414 5.29019C7.50747 5.5302 7.51414 5.6902 7.51414 5.7702C7.51414 5.84353 7.50747 5.99353 7.49414 6.2202C7.46747 6.6202 7.32081 6.93686 7.05414 7.1702C6.79414 7.40353 6.44081 7.5202 5.99414 7.5202ZM5.18414 11.0002C5.11747 11.0002 5.06414 10.9835 5.02414 10.9502C4.98414 10.9102 4.96414 10.8602 4.96414 10.8002C4.96414 10.7602 4.97747 10.7235 5.00414 10.6902L9.93414 4.1902C9.98747 4.12353 10.0375 4.07686 10.0841 4.05019C10.1308 4.01686 10.1975 4.0002 10.2841 4.0002H10.8141C10.8808 4.0002 10.9308 4.0202 10.9641 4.0602C11.0041 4.09353 11.0241 4.1402 11.0241 4.2002C11.0241 4.2402 11.0108 4.27686 10.9841 4.31019L6.05414 10.8102C6.00081 10.8769 5.95081 10.9269 5.90414 10.9602C5.85747 10.9869 5.79414 11.0002 5.71414 11.0002H5.18414ZM5.99414 6.7702C6.18747 6.7702 6.32747 6.71353 6.41414 6.6002C6.50747 6.48686 6.56414 6.34353 6.58414 6.1702C6.59747 5.94353 6.60414 5.80353 6.60414 5.7502C6.60414 5.67686 6.59747 5.5402 6.58414 5.3402C6.57081 5.16686 6.51747 5.02353 6.42414 4.9102C6.33081 4.7902 6.18747 4.7302 5.99414 4.7302C5.80747 4.7302 5.66747 4.7902 5.57414 4.9102C5.48081 5.02353 5.42747 5.16686 5.41414 5.3402C5.40747 5.4402 5.40414 5.57686 5.40414 5.7502C5.40414 5.91686 5.40747 6.05686 5.41414 6.1702C5.42747 6.33686 5.47747 6.4802 5.56414 6.6002C5.65747 6.71353 5.80081 6.7702 5.99414 6.7702ZM9.99414 11.0602C9.55414 11.0602 9.20081 10.9402 8.93414 10.7002C8.67414 10.4535 8.53081 10.1269 8.50414 9.7202C8.49747 9.60686 8.49414 9.45686 8.49414 9.2702C8.49414 9.07686 8.49747 8.9202 8.50414 8.8002C8.53081 8.38686 8.67081 8.0602 8.92414 7.8202C9.17747 7.5802 9.53414 7.4602 9.99414 7.4602C10.4608 7.4602 10.8208 7.5802 11.0741 7.8202C11.3275 8.0602 11.4675 8.38686 11.4941 8.8002C11.5075 9.0402 11.5141 9.19686 11.5141 9.2702C11.5141 9.34353 11.5075 9.49353 11.4941 9.7202C11.4675 10.1269 11.3208 10.4535 11.0541 10.7002C10.7941 10.9402 10.4408 11.0602 9.99414 11.0602ZM9.99414 10.2802C10.1941 10.2802 10.3375 10.2235 10.4241 10.1102C10.5175 9.9902 10.5708 9.84686 10.5841 9.6802C10.5975 9.45353 10.6041 9.3102 10.6041 9.2502C10.6041 9.18353 10.5975 9.0502 10.5841 8.8502C10.5708 8.67686 10.5175 8.53353 10.4241 8.4202C10.3308 8.3002 10.1875 8.2402 9.99414 8.2402C9.80747 8.2402 9.66747 8.3002 9.57414 8.4202C9.48081 8.53353 9.42747 8.67686 9.41414 8.8502C9.40747 8.9502 9.40414 9.08353 9.40414 9.2502C9.40414 9.42353 9.40747 9.56686 9.41414 9.6802C9.42747 9.84686 9.47747 9.9902 9.56414 10.1102C9.65747 10.2235 9.80081 10.2802 9.99414 10.2802Z" fill="#26C953"/>
</svg>

<svg width="16" height="16" fill="none" xmlns="http://www.w3.org/2000/svg"><rect width="16" height="16" rx="2" fill="#E3FBE3"/><path d="M5.994 7.52c-.44 0-.793-.116-1.06-.35-.26-.233-.403-.55-.43-.95a8.02 8.02 0 0 1-.01-.45c0-.2.003-.36.01-.48.027-.413.167-.74.42-.98s.61-.36 1.07-.36c.46 0 .817.12 1.07.36.26.24.403.567.43.98.013.24.02.4.02.48 0 .074-.007.224-.02.45-.027.4-.173.717-.44.95-.26.234-.613.35-1.06.35zM5.184 11a.242.242 0 0 1-.16-.05.204.204 0 0 1-.06-.15.17.17 0 0 1 .04-.11l4.93-6.5a.566.566 0 0 1 .15-.14.341.341 0 0 1 .2-.05h.53c.067 0 .117.02.15.06.04.034.06.08.06.14a.17.17 0 0 1-.04.11l-4.93 6.5a.789.789 0 0 1-.15.15.383.383 0 0 1-.19.04h-.53zm.81-4.23c.193 0 .333-.056.42-.17a.805.805 0 0 0 .17-.43c.013-.226.02-.366.02-.42 0-.073-.007-.21-.02-.41a.748.748 0 0 0-.16-.43c-.093-.12-.237-.18-.43-.18-.187 0-.327.06-.42.18a.748.748 0 0 0-.16.43c-.007.1-.01.237-.01.41 0 .167.003.307.01.42.013.167.063.31.15.43.093.114.237.17.43.17zm4 4.29c-.44 0-.793-.12-1.06-.36-.26-.246-.403-.573-.43-.98a8.02 8.02 0 0 1-.01-.45c0-.193.003-.35.01-.47.027-.413.167-.74.42-.98s.61-.36 1.07-.36c.467 0 .827.12 1.08.36.254.24.393.567.42.98.014.24.02.397.02.47 0 .074-.006.224-.02.45-.027.407-.173.733-.44.98-.26.24-.613.36-1.06.36zm0-.78c.2 0 .344-.056.43-.17a.785.785 0 0 0 .16-.43c.014-.226.02-.37.02-.43 0-.066-.006-.2-.02-.4a.747.747 0 0 0-.16-.43c-.093-.12-.236-.18-.43-.18-.187 0-.327.06-.42.18a.748.748 0 0 0-.16.43c-.007.1-.01.234-.01.4 0 .174.003.317.01.43.013.167.063.31.15.43.093.114.237.17.43.17z" fill="#26C953"/></svg>
